X: 4708
T: Boys Of Ballinahinch, The
R: reel
M: 4/4
K: Dmajor
f2df eBBA|Bdef g2ag|f2df eBBc|dBAF E2D2:|
fgaf d4|fgaf g4|faab afdf|gefd B2A2||
fgaf d4|fgaf g3a|bgaf gfed|cdef g2ag||

